assets/images/icons/key-01.svg

<svg width="40" height="40" viewBox="0 0 40 40" fill="none" xmlns="http://www.w3.org/2000/svg">
<g clip-path="url(#clip0_379_9262)">
<path opacity="0.1" d="M0.278944 28.9522C-0.0736318 25.9401 -0.122607 22.9843 0.310078 20.3101C0.84212 17.0218 2.23117 13.3636 3.74867 10.092C6.71454 3.69799 12.0239 1.46106 18.489 0.452582C27.5008 -0.953153 39.9215 0.452613 40 11.3589C39.5479 15.2591 36.5646 26.1018 26.4939 26.9292C23.1642 27.2028 21.9185 30.5473 20.4515 34.3758C16.5911 44.4503 1.56969 39.9794 0.278944 28.9522Z" fill="#015637"/>
<g clip-path="url(#clip1_379_9262)">
<path d="M10.5019 10.1401C9.92146 10.1401 9.44919 10.6124 9.44919 11.193C9.44919 11.7734 9.92146 12.2457 10.5019 12.2457C11.0825 12.2457 11.5548 11.7734 11.5548 11.193C11.5548 10.6124 11.0825 10.1401 10.5019 10.1401Z" fill="#7FB51F"/>
<path d="M26.6064 33.058C27.0909 31.8892 26.5362 30.5491 25.3674 30.0646C24.1987 29.5802 22.8585 30.1349 22.3741 31.3037C21.8896 32.4725 22.4443 33.8126 23.6131 34.2971C24.7818 34.7815 26.122 34.2268 26.6064 33.058Z" fill="#7FB51F"/>
<path d="M20.3821 32.1748C20.3821 31.9386 20.4033 31.7075 20.4418 31.4821H8.5706C7.60633 31.4821 6.82181 30.6976 6.82181 29.7333C6.82181 28.769 7.60633 27.9845 8.5706 27.9845H16.7542C18.6149 27.9845 20.1288 26.4707 20.1288 24.61C20.1288 22.7493 18.615 21.2355 16.7542 21.2355H13.1505L12.0686 23.0443H16.7542C17.6176 23.0443 18.3199 23.7466 18.3199 24.61C18.3199 25.4733 17.6175 26.1757 16.7542 26.1757H8.5706C6.60894 26.1757 5.01297 27.7716 5.01297 29.7333C5.01297 31.695 6.60894 33.2909 8.5706 33.2909H20.5378C20.4371 32.9358 20.3821 32.5617 20.3821 32.1748Z" fill="#7FB51F"/>
<path d="M34.9985 19.6559C34.9843 19.2996 34.7619 18.9849 34.4308 18.8525L24.8173 15.007C24.5387 14.8957 24.2229 14.9296 23.9744 15.0979C23.7259 15.2661 23.577 15.5467 23.577 15.8468V28.1774C23.868 28.1116 24.1702 28.0757 24.4808 28.0757C24.7919 28.0757 25.0944 28.1117 25.3857 28.1776V25.0246L34.4969 20.5022C34.8163 20.3437 35.0128 20.0122 34.9985 19.6559Z" fill="#7FB51F"/>
<path d="M16.0915 11.0811C16.0915 8.01825 13.6085 5.53528 10.5456 5.53528C7.48273 5.53528 4.99976 8.01825 4.99976 11.0811V11.1041C4.99976 12.2112 5.29597 13.2981 5.85767 14.2521L10.078 21.4198C10.269 21.7442 10.7377 21.7458 10.931 21.4227L15.2117 14.2659C15.7874 13.3034 16.0915 12.2027 16.0915 11.0811ZM10.502 14.0543C8.92412 14.0543 7.64041 12.7706 7.64041 11.1927C7.64041 9.61487 8.92412 8.33115 10.502 8.33115C12.0799 8.33115 13.3636 9.61487 13.3636 11.1927C13.3636 12.7707 12.0799 14.0543 10.502 14.0543Z" fill="#7FB51F"/>
</g>
</g>
<defs>
<clipPath id="clip0_379_9262">
<rect width="40" height="40" fill="white"/>
</clipPath>
<clipPath id="clip1_379_9262">
<rect width="30" height="30" fill="white" transform="translate(4.99988 5)"/>
</clipPath>
</defs>
</svg>

<svg xmlns="http://www.w3.org/2000/svg" width="40" height="40" fill="none"><g clip-path="url(#a)"><path fill="#015637" d="M.279 28.952c-.353-3.012-.402-5.968.031-8.642.532-3.288 1.921-6.946 3.439-10.218 2.966-6.394 8.275-8.63 14.74-9.64C27.501-.952 39.922.453 40 11.36c-.452 3.9-3.435 14.743-13.506 15.57-3.33.274-4.575 3.618-6.042 7.447C16.592 44.45 1.57 39.979.279 28.952" opacity=".1"/><g fill="#7FB51F" clip-path="url(#b)"><path d="M10.502 10.14a1.054 1.054 0 0 0 0 2.106 1.054 1.054 0 0 0 0-2.106m16.104 22.918a2.29 2.29 0 1 0-4.232-1.754 2.29 2.29 0 0 0 4.232 1.754m-6.224-.883q0-.354.06-.693H8.57a1.75 1.75 0 0 1-1.75-1.749 1.75 1.75 0 0 1 1.75-1.748h8.183a3.38 3.38 0 0 0 3.375-3.375 3.38 3.38 0 0 0-3.375-3.375H13.15l-1.081 1.81h4.685c.864 0 1.566.702 1.566 1.565s-.703 1.566-1.566 1.566H8.571a3.56 3.56 0 0 0-3.558 3.557 3.56 3.56 0 0 0 3.558 3.558h11.967c-.1-.355-.156-.73-.156-1.116m14.617-12.519a.9.9 0 0 0-.568-.803l-9.614-3.846a.905.905 0 0 0-1.24.84v12.33a4.1 4.1 0 0 1 1.809 0v-3.152l9.11-4.523a.9.9 0 0 0 .502-.846"/><path d="M16.092 11.081a5.546 5.546 0 0 0-11.092 0v.023c0 1.107.296 2.194.858 3.148l4.22 7.168c.191.324.66.326.853.003l4.28-7.157c.576-.963.88-2.063.88-3.185m-5.59 2.973a2.865 2.865 0 0 1-2.862-2.861 2.865 2.865 0 0 1 2.862-2.862 2.865 2.865 0 0 1 2.862 2.862 2.865 2.865 0 0 1-2.862 2.861"/></g></g><defs><clipPath id="a"><path fill="#fff" d="M0 0h40v40H0z"/></clipPath><clipPath id="b"><path fill="#fff" d="M5 5h30v30H5z"/></clipPath></defs></svg>
